X:1
T:Title
%%score { ( 1 3 ) | 2 }
L:1/8
Q:1/4=112
M:4/4
K:Ab
V:1 treble nm="Grand Piano"
V:3 treble 
V:2 bass 
V:1
 [CE]2 | [Ec]3 [EB] [EA][CE][CA][EG] | G2 F2 z2 [DF]2 | [DG]3 [DF] [DE][Ed][Fd][Gd] | %4
 [Ec]4 z2 [Ec]2 | [_Ge]3 [Ad] [Ac][EB][EA][=D=E] | G2 F2 z [FB][Fc][Fd] | %7
 [CE]2 z [Ac][Q:1/4=72] [Gc]2[Q:1/4=112] [GB]2 | [EA]4 z [CA][B,G][CA] | %9
[M:3/4] [DB]3 [GB] [_G=A][=GB] | [Ac]3 [Ac] [GB][Ac] | [Gd]3 [_Gc] [=Gd][Be] | %12
[Q:1/4=72] [Ac]2 z[Q:1/4=112] [ce] [ce][Bd] | [Ac]2 z A [GB][_Gc] | [Fd]3 [DF] [Fc][FB] | %15
 [EA]3 [EG][Q:1/4=72] [DF][DG] |[M:2/4] A4 |] %17
V:2
 [A,,A,]2 | [A,,A,]3 [B,,G,] [C,A,][A,,A,][A,,A,][C,A,] | [D,A,]4 z2 [D,A,]2 | %3
 E,3 [E,G,] [E,G,][E,G,][E,A,][E,B,] | A,4 z2[K:treble] A,2 | %5
 [A,C]3 [A,G] [A,E][A,D][K:bass][A,C]A, | [D,A,]4 z [B,,D][E,=A,][D,B,] | %7
 [E,G,]2 z [E,E] [E,E]2 [E,D]2 | [A,,C]4 z2 z A, |[M:3/4] [E,G,][E,G,] .[E,G,]2 z [E,E] | %10
 [A,E][A,E] [A,E][A,E] [DE][CE] | [B,E]3 [=A,E] [B,E][G,E] | [A,E]2 z2 z [E,E] | %13
 [A,E][A,E] .[A,E]2 z [A,E] | [D,D][D,D] [D,D][D,A,] [D,E][D,D] | [E,C]3 [E,D] [E,G,][E,B,] | %16
[M:2/4] [A,,E,A,]4 |] %17
V:3
 x2 | x8 | D4 z4 | x8 | x8 | x8 | D4 z4 | x8 | x8 |[M:3/4] x6 | x6 | x6 | x6 | x6 | x6 | x6 | %16
[M:2/4] A,2 z2 |] %17

